icon-themes/colibre_svg/vcl/res/autoscroll_sw.svg

<svg viewBox="0 0 256 256" xmlns="http://www.w3.org/2000/svg"><path d="m7.9984618 256 63.9876942-15.99692 7.998462-7.99847-55.989233-55.98923-7.998461 7.99846-15.996924 63.9877zm0-7.99846 15.9969232-55.98923 39.992309 39.9923zm67.9869252-39.99231c7.198616 0 14.397231-2.71948 19.796193-8.15843 10.95789-10.95789 10.95789-28.6345 0-39.59239-10.957893-10.95789-28.634493-10.95789-39.592386 0s-10.957893 28.6345 0 39.59239c5.438954 5.43895 12.63757 8.15843 19.796193 8.15843zm0-7.99846c-5.119015 0-10.238031-1.91963-14.157277-5.83888-7.838493-7.83849-7.838493-20.47606 0-28.31455 7.838492-7.8385 20.476062-7.8385 28.314554 0 7.838493 7.83849 7.838493 20.47606 0 28.31455-3.919246 3.91925-9.020441 5.83888-14.157277 5.83888z" fill="#fff"/><path d="m63.987694 232.00461-39.992309-39.9923-15.9969232 55.98923zm26.234955-37.83272c7.838493-7.83849 7.838493-20.47606 0-28.31455-7.838492-7.8385-20.476062-7.8385-28.314555 0-7.838492 7.83849-7.838492 20.47606 0 28.31455 7.838493 7.83849 20.476063 7.83849 28.314555 0z"/></svg>

<svg xmlns="http://www.w3.org/2000/svg" viewBox="0 0 256 256">
  <path
     style="fill:#ffffff"
     d="M 7.9984618,256 71.986156,240.00308 79.984618,232.00461 23.995385,176.01538 15.996924,184.01384 0,248.00154 Z m 0,-7.99846 15.9969232,-55.98923 39.992309,39.9923 z M 75.985387,208.00923 c 7.198616,0 14.397231,-2.71948 19.796193,-8.15843 10.95789,-10.95789 10.95789,-28.6345 0,-39.59239 -10.957893,-10.95789 -28.634493,-10.95789 -39.592386,0 -10.957893,10.95789 -10.957893,28.6345 0,39.59239 5.438954,5.43895 12.63757,8.15843 19.796193,8.15843 z m 0,-7.99846 c -5.119015,0 -10.238031,-1.91963 -14.157277,-5.83888 -7.838493,-7.83849 -7.838493,-20.47606 0,-28.31455 7.838492,-7.8385 20.476062,-7.8385 28.314554,0 7.838493,7.83849 7.838493,20.47606 0,28.31455 -3.919246,3.91925 -9.020441,5.83888 -14.157277,5.83888 z"
     />
  <path
     style="fill:#000000"
     d="M 63.987694,232.00461 23.995385,192.01231 7.9984618,248.00154 Z m 26.234955,-37.83272 c 7.838493,-7.83849 7.838493,-20.47606 0,-28.31455 -7.838492,-7.8385 -20.476062,-7.8385 -28.314555,0 -7.838492,7.83849 -7.838492,20.47606 0,28.31455 7.838493,7.83849 20.476063,7.83849 28.314555,0 z"
     />
</svg>
